X:1
T:Title
%%score ( 1 2 ) { 3 | 4 }
L:1/8
Q:1/4=110
M:4/4
K:Eb
V:1 treble nm="Grand Piano, Soprano"
V:2 treble 
V:3 bass nm="Choir Pad, Solitude (Prout), 86.86.88"
V:4 bass 
V:1
 [EG]2 [DF]2 E2 [DA]2 | [EG]2 [Ec]2- [Ec][EF] [EF]2 | [EG]2 [GB]2 [FA]2 [EG]2 | [DF]2 [EG]6 | %4
w: By~Ebenezer~Prout~(1835\-1909) * * *||||
 [GB]2 [Fc]2 [GB]2 [=Ae]2 | [Bd]2 [Gd]2- [Gd][Gc] [Gc]2 | [GB]2 [F=A]2 [FB]2 [Ed]2 | [Ec]2 [DB]6 | %8
w: ||||
 [FB]2 [=E_d]2- [Ed][Ed] [Fc]2 | F2 [=EB]2- [EB][EB] [FA]2 | [Gc]2 [FB]2 [DA]2 [EG]2 | %11
w: |||
 [EA]2 F4- [DF]2 | E2 E6- | E2 z2 z4 |] %14
w: |||
V:2
 x8 | x8 | x8 | x8 | x8 | x8 | x8 | x8 | x8 | x8 | x8 | z2 E4 z2 | x8 | x8 |] %14
V:3
 B,2 B,2 B,2 B,2 | B,2 A,2- A,/ z/[K:treble] C C2 | B,2 C2 C2[K:bass] B,2 | B,2 B,6 | %4
 E2 D2[K:treble] E2 E2 | F2 F2- FE E2 | D2 C2 D2[K:bass] G,2 | =A,2 B,6 | %8
 D2 B,2- B,B,[K:treble] C2 | C2 C2- CC C2 | G,2 B,2 F,2 C2 | E,2 F,2 G,2 A,2- | A,2 G,6- | %13
 G,2 z2 z4 |] %14
V:4
 E,2 A,2 G,2 F,2 | E,2 z2 z A, A,2 | G,2 F,2 F,2 B,,2 | B,,2 E,6 | E,2 A,2 G,2 C2 | %5
 B,2 E,2- E,E, E,2 | =E,2 F,2 F,2 F,2 | F,2 B,,6 | B,2 G,2- G,G, A,2 | A,2 G,2- G,G, F,2 | %10
 E,2 D,2 B,,2 A,,2 | C,2 B,,4 B,,2- | B,,2 E,6- | E,2 z2 z4 |] %14

